X: 35488
T: Rozsa
R: waltz
M: 3/4
K: Eminor
cBG|:E2EG Be|g2ge Be|c2 AB cA|Bc BA GF|E2EG Be|g2ge Be|c2 AB cA|1 B2Bc BG:|2 B6||
c2 ef g2|B2 ef g2|fg a/b/a gf|g2 f/g/f e2|c2 ef g2|B2 ef g2|fg a/b/a gf|e2ed cB|
ce fg fe|Be fg fe|fg a/b/a gf|g2 f/g/f e2|ce fg fe|Be fg fe|fg a/b/a gf|e3||

